X:1
T:Fox, SM
T:Fox, SM
T:Thomas Commuck, 1845
T:Public Domain Courtesy of the Cyber Hymnal™
C:Thomas Commuck, 1845
Z:Public Domain
Z:Courtesy of the Cyber Hymnal™
%%score 1 2 3 4
L:1/8
Q:1/4=102
M:2/4
K:F
V:1 treble 
V:2 treble 
V:3 treble-8 
V:4 bass 
V:1
 A2 | c3 d | c2 c2 | c2 z c | c2 c2 | (cG) G2 | G2 z A | d3 c | B2 A2 | (dc) (BA) | G3 G | %11
 (Ac) c2 | c2 (cB) | A4 |] %14
V:2
 F2 | F3 F | F2 E2 | F2 z E | F2 A2 | (GE) F2 | F2 z F | F3 F | F2 F2 | F2 F2 | E3 E | F2 A2 | %12
 (GF) E2 | F4 |] %14
V:3
 c2 | A3 B | G2 G2 | A2 z A | A2 f2 | (ec) d2 | c2 z c | f3 e | d2 c2 | (BA) (dc) | c3 c | %11
 (cA) fc | (BA) G2 | F4 |] %14
V:4
 F,2 | F,3 B,, | C,2 C,2 | F,2 z C, | F,2 F,2 | G,2 G,2 | C,2 z F, | F,3 F, | F,2 F,2 | F,2 F,2 | %10
 C,3 C, | F,2 F,2 | C2 C,2 | F,4 |] %14

